X: 10
T: Trip To Sligo, The
Z: Eubonian
S: https://thesession.org/tunes/397#setting33889
R: jig
M: 6/8
L: 1/8
K: Emin
|:B,|E2 c BGE|D2 d AFD|E2 c BGE|GFE e2 f|
gfe dcB|A/B/AG FED|EFG ABc|BGF E2:|
|:B|eBe gbg|dAd faf|eBe gbg|faf gbg|
gfe dcB|A/B/AG FED|EFG ABc|BGF E2:|

